src/assets/images/arrow_cc.svg

<svg xmlns="http://www.w3.org/2000/svg" width="40" height="24" viewBox="0 0 40 24" fill="none">
<path d="M13.3333 0C13.3333 1.23667 12.1117 3.08333 10.875 4.63333C9.285 6.63333 7.385 8.37833 5.20667 9.71C3.57334 10.7083 1.59333 11.6667 9.53674e-07 11.6667M9.53674e-07 11.6667C1.59333 11.6667 3.575 12.625 5.20667 13.6233C7.385 14.9567 9.285 16.7017 10.875 18.6983C12.1117 20.25 13.3333 22.1 13.3333 23.3333M9.53674e-07 11.6667H40" stroke="white" stroke-width="2"/>
</svg>

<svg xmlns="http://www.w3.org/2000/svg" width="40" height="24" fill="none"><path d="M13.333 0c0 1.237-1.221 3.083-2.458 4.633-1.59 2-3.49 3.745-5.668 5.077-1.634.998-3.614 1.957-5.207 1.957m0 0c1.593 0 3.575.958 5.207 1.956 2.178 1.334 4.078 3.079 5.668 5.075 1.237 1.552 2.458 3.402 2.458 4.635M0 11.667h40" stroke="#fff" stroke-width="2"/></svg>
